X:1
T: Wild Roses
C:
R:Strathspey
Q: 128
K:G
M:4/4
L:1/16
|:dd3 B3G E3F G4|D3G E3G D3G E3G|dd3 B3G E3F G3A|B3e gfe^d e6 g2|
dd3 B3G E3F G4|D3G E3G D3G E3G|dd3 B3G E3F G3A|B3e gfe^d e6 g2|
d3e g3a b3a g3d|eg3 d3g eg3 d3B|d3e g3a b3a g3d|e3g fgaf g6 d2|
d3e g3a b3a g3d|eg3 d3g eg3 d3B|d3e g3a b3a g3d|e3g fgaf g8:|
